X:1
T:Title
L:1/8
M:4/4
I:linebreak $
K:C
V:1 treble nm="Voice"
V:1
"C" gece eece | gece"G" ddde | fdBd ddba | gfdf"C" eece |"C" gece eece | gece"G" ddde | %6
 fdBd ddba |1 gfdB"C" c2 ef :|2 gfdB"C" c2 z c |:"C" CCEG c2 cB |"F" AGFE"G" D3 B, | G,B,DD D2 EE | %12
"C" CB,CE G3 G |"C" C2 EG cccB |"F" AGFE"G" D3 B, | G,B,DD D2 AA |1 GFDB,"C" C2 z c :|2 %17
 GEAB"C" c2 ef |] %18
